X:1
T:Title
%%score { ( 1 3 ) | ( 2 4 ) }
L:1/8
M:6/4
K:G
V:1 treble nm="Grand Piano"
V:3 treble 
V:2 bass 
V:4 bass 
V:1
 z6 z4[Q:1/4=100] [B,D]2 | [B,D]2 [_B,^C]2 [=B,D]2 [DG]2 A2 B2 | [Ec]2 [EG]2 [^DA]2 B4 d2 | %3
 d2 e2 d2 B2 G2 [DB]2 | [^CB]2 [CA]2 E2 A4 D2 | D2 E2 F2 A .G3 B2 | d12 | %7
[M:13/8] [Gd]2 [DGB]2 [EGc]2 [DGB] .[B,DG]2 z2 [CA]2 |[M:5/4] [B,G-]4 G6 |] %9
V:2
 z6 z4 [G,,G,]2 | [G,,G,]2 [G,,E,]2 [G,,D,]2 [B,,D,]2 [D,F,D]2 [G,D]2 | %2
 [C,G,]2 [C,G,]2 [C,G,]2[K:treble] [G,D]4 [G,B,G]2 | %3
 [G,B,G]2 [G,CG]2 [G,B,G]2 [G,DG]2[K:bass] [G,B,D]2 [G,,G,]2 | %4
 [A,,E,]2 [A,,E,]2 [^C,G,]2 [D,F,D]4 D,2 | D,2 E,2 F,2 A, .G,3 z2 | z4 [D,^G,]2 [D,A,]4 [D,C]2 | %7
[M:13/8] [G,B,]2 G,2 C,2 D, .D,2 z2 [D,F,]2 |[M:5/4] z2 D,2 E,2 D,4 |] %9
V:3
 x12 | x12 | x12 | x12 | x12 | x12 | z4 =F2 ^F4 [Fe]2 |[M:13/8] x13 |[M:5/4] G,2 z2 C2 B,4 |] %9
V:4
 x12 | x12 | x6[K:treble] x6 | x8[K:bass] x4 | x12 | x12 | x12 |[M:13/8] x13 | %8
[M:5/4] G,,2- G,,2- G,,4- G,,3/2 z/ |] %9

